icons/label-chevron-down-outline.svg

<svg xmlns="http://www.w3.org/2000/svg" width="24" height="24" viewBox="0 0 24 24">
  <path d="M14.1715729,4 C14.9672223,4 15.7302841,4.31607052 16.2928932,4.87867966 L16.2928932,4.87867966 L21.2928932,9.87867966 C22.4644661,11.0502525 22.4644661,12.9497475 21.2928932,14.1213203 L21.2928932,14.1213203 L16.2928932,19.1213203 C15.7302841,19.6839295 14.9672223,20 14.1715729,20 L14.1715729,20 L5,20 C3.34314575,20 2,18.6568542 2,17 L2,17 L2,7 C2,5.34314575 3.34314575,4 5,4 L5,4 Z M14.1715729,6 L5,6 C4.44771525,6 4,6.44771525 4,7 L4,7 L4,17 C4,17.5522847 4.44771525,18 5,18 L5,18 L14.1715729,18 C14.4367894,18 14.6911433,17.8946432 14.8786797,17.7071068 L14.8786797,17.7071068 L19.8786797,12.7071068 C20.2692039,12.3165825 20.2692039,11.6834175 19.8786797,11.2928932 L19.8786797,11.2928932 L14.8786797,6.29289322 C14.6911433,6.10535684 14.4367894,6 14.1715729,6 L14.1715729,6 Z M6.38710056,9.70970461 C6.77939176,9.40467972 7.34662282,9.43240926 7.70710678,9.79289322 L7.70710678,9.79289322 L10,12.085 L12.2928932,9.79289322 L12.3871006,9.70970461 C12.7793918,9.40467972 13.3466228,9.43240926 13.7071068,9.79289322 C14.0976311,10.1834175 14.0976311,10.8165825 13.7071068,11.2071068 L13.7071068,11.2071068 L10.7071068,14.2071068 L10.6128994,14.2902954 C10.2206082,14.5953203 9.65337718,14.5675907 9.29289322,14.2071068 L9.29289322,14.2071068 L6.29289322,11.2071068 L6.20970461,11.1128994 C5.90467972,10.7206082 5.93240926,10.1533772 6.29289322,9.79289322 L6.29289322,9.79289322 Z"/>
</svg>

<svg xmlns="http://www.w3.org/2000/svg" viewBox="0 0 24 24">
  <path d="M14.17 4a3 3 0 0 1 2.12.88l5 5a3 3 0 0 1 0 4.24l-5 5a3 3 0 0 1-2.12.88H5a3 3 0 0 1-3-3V7a3 3 0 0 1 3-3zm0 2H5a1 1 0 0 0-1 1v10a1 1 0 0 0 1 1h9.17a1 1 0 0 0 .7-.3l5-5a1 1 0 0 0 0-1.4l-5-5a1 1 0 0 0-.7-.3zM6.4 9.71a1 1 0 0 1 1.32.08L10 12.1l2.3-2.3.09-.08a1 1 0 0 1 1.32 1.5l-3 3-.1.08a1 1 0 0 1-1.32-.08l-3-3-.08-.1a1 1 0 0 1 .08-1.32z"/>
</svg>
